X:1
T:Cling to the Bible, My Boy
T:Cling to the Bible, My Boy
T:Daniel Brink Towner
T:William Shakespeare Hays, 1890
T:Public Domain Courtesy of the Cyber Hymnal™
T:Public Domain Courtesy of the Cyber Hymnal™
C:Daniel Brink Towner
Z:Public Domain
Z:Courtesy of the Cyber Hymnal™
%%score ( 1 2 ) ( 3 4 )
L:1/8
Q:1/4=85
M:6/8
K:F
V:1 treble 
V:2 treble 
V:3 bass 
V:4 bass 
V:1
 F/[FG]/ | [FA]>[FA][FA] [Ac][FA]F | [DF][DF][_DF] [CF]2 [CF]/[CF]/ | [EG]>[EG][EG] [EG][EG][FA] | %4
w: 1.~As your|jour- ney thro’ life to the|grave you pur- sue, There is|one thing in ear- nest I|
w: 2.~You may|meet with mis- for- tunes and|sor- rows and tears, You may|bat- tle with sin and with|
w: 3.~Put your|faith in our Fa- ther, and|you will be strong; Keep your|eye on the cross and you’ll|
w: 4.~Ev- ery|time that you read it you’ll|learn some- thing new, O- f|Je- sus who died on the|
w: 5.~’Tis the|an- chor of hope, and the|lamp that gives light; ’Tis the|star that will shine thro’ your|
 [GB][GB][GB] [FA]2 [FA]/[GB]/ | [Ac]>[Ac][Ac] [FA][FG][CF] | [CF][FG][FA] [FB]2 !fermata![Fd] | %7
w: wish you to do. O- h!|lis- ten, my boy, while I|say this to you— Oh!|
w: Sa- tan for years. Be a|Chris- tian! press on! do not|have an- y fears, But|
w: ne- ver go wrong; Sing the|sweet songs of praise as you|jour- ney a- long, And|
w: cross to save you; To the|Lord, to your- self, and to|Hea- ven be true, And|
w: life’s dark- est night. If you|fol- low its guid- ance you’ll|al- ways be right. Oh!|
 [Fc]>[Fc][Fc] [Ec][EB][EG] | F3- F2 ||"^Refrain" [FA] | [Ac]>[Ac][Ac] [Ac][FA][Bd] | %11
w: cling to the Bi- ble, my|boy. *|||
w: cling to the Bi- ble, my|boy. *|Then|cling to the Bi- ble, my|
w: cling to the Bi- ble, my|boy. *|||
w: cling to the Bi- ble, my|boy. *|||
w: cling to the Bi- ble, my|boy. *|||
 [Bd]3- [Bd]2 [Bd] | [Ac]>[Ac][Ac] [Bd][Ac][FA] | [EG]3- [EG]2 [EB] | [FA][FA][FA] [EB][EB][EB] | %15
w: ||||
w: boy, * Oh!|cling to the Bi- ble, my|boy; * While|liv- ing or dy- ing, all|
w: ||||
w: ||||
w: ||||
 [_Ec][Ec][Ec] !fermata![Dd]2 !fermata![B=e] | [Af][Fc][FA] [Ec][EB][EG] | F3- F2 |] %18
w: |||
w: else let- ting go, Oh!|cling to the Bi- ble, my|boy. *|
w: |||
w: |||
w: |||
V:2
 F/ x/ | x5 F | x6 | x6 | x6 | x6 | x6 | x6 | F3- F2 || x | x6 | x6 | x6 | x6 | x6 | x6 | x6 | %17
 F3- F2 |] %18
V:3
 [F,A,]/[F,B,]/ | [F,C]>[F,C][F,C] [F,C][F,C][A,,C] | %2
w: ~ ~|~ ~ ~ ~ ~ ~|
 [B,,B,][B,,B,][B,,B,] [F,,F,A,]2 [F,A,]/[F,A,]/ | [C,C]>[C,C][C,C] [C,C][C,C][C,C] | %4
w: ~ ~ ~ ~ ~ ~|~ ~ ~ ~ ~ ~|
 [C,C][C,C][C,C] [F,C]2 F,/F,/ | F,>F,F, [F,C][F,B,][F,A,] | %6
w: ~ ~ ~ ~ ~ ~|~ ~ ~ ~ ~ ~|
 [F,A,][F,B,] (C/_E/) [B,,D]2 !fermata![B,,B,] | [C,A,]>[C,A,][C,A,] [C,G,][C,C][C,B,] | %8
w: ~ ~ ~ * ~ ~|~ ~ ~ ~ ~ ~|
 [F,,F,A,]3- [F,,F,A,]2 || [F,C] | [F,F]>[F,F][F,F] [F,F][F,C][F,F] | F3- [B,F]2 [B,F] | %12
w: ~ *|~|~ ~ ~ ~ ~ the|Bi- my boy,|
 [F,F]>[F,F][F,F] [F,F][F,F][F,C] | C3- [C,C]2 [C,C] | [F,C][F,C][F,C] [G,C][G,C][G,C] | %15
w: ~ ~ ~ ~ the Bi-|ble, boy, *||
 [A,F][A,F][A,F] !fermata![B,F]2 !fermata![G,C] | [F,C][F,A,][F,C] [C,C][C,C][C,B,] | %17
w: ||
 [F,,F,A,]3- [F,,F,A,]2 |] %18
w: |
V:4
 x | x6 | x6 | x6 | x5 F,/F,/ | F,>F,F, x3 | x2 F, x3 | x6 | x5 || x | x6 | B,,D,F, x3 | x6 | %13
w: |||||||||||* ~ ~||
 C,E,G, x3 | x6 | x6 | x6 | x5 |] %18
w: |||||

